svgs/duotone/peseta-sign.svg

<svg xmlns="http://www.w3.org/2000/svg" viewBox="0 0 384 512"><!--! Font Awesome Pro 6.5.1 by @fontawesome - https://fontawesome.com License - https://fontawesome.com/license (Commercial License) Copyright 2023 Fonticons, Inc. --><defs><style>.fa-secondary{opacity:.4}</style></defs><path class="fa-secondary" d="M32 160l0 64c-17.7 0-32-14.3-32-32s14.3-32 32-32zm250.5 64H96V160H282.5c3.5 10 5.5 20.8 5.5 32s-1.9 22-5.5 32zm66.3 0c2.1-10.3 3.2-21 3.2-32s-1.1-21.7-3.2-32H352c17.7 0 32 14.3 32 32s-14.3 32-32 32h-3.2z"/><path class="fa-primary" d="M32 64c0-17.7 14.3-32 32-32H192c88.4 0 160 71.6 160 160s-71.6 160-160 160H96v96c0 17.7-14.3 32-32 32s-32-14.3-32-32V320 64zM96 288h96c53 0 96-43 96-96s-43-96-96-96H96V288z"/></svg>

<svg xmlns="http://www.w3.org/2000/svg" viewBox="0 0 384 512"><!--! Font Awesome Pro 6.1.1 by @fontawesome - https://fontawesome.com License - https://fontawesome.com/license (Commercial License) Copyright 2022 Fonticons, Inc. --><defs><style>.fa-secondary{opacity:.4}</style></defs><path class="fa-primary" d="M32 64C32 46.33 46.33 32 64 32H192C280.4 32 352 103.6 352 192C352 280.4 280.4 352 192 352H96V448C96 465.7 81.67 480 64 480C46.33 480 32 465.7 32 448V64zM96 288H192C245 288 288 245 288 192C288 138.1 245 96 192 96H96V288z"/><path class="fa-secondary" d="M32 224C14.33 224 0 209.7 0 192C0 174.3 14.33 160 32 160V224zM282.5 224H96V160H282.5C286.1 170 288 180.8 288 192C288 203.2 286.1 213.1 282.5 224zM352 192C352 181 350.9 170.3 348.8 160H352C369.7 160 384 174.3 384 192C384 209.7 369.7 224 352 224H348.8C350.9 213.7 352 202.1 352 192z"/></svg>
